to koch :level :width 
	ifelse ( :level / 1 ) 
	[ 
		forward :width 
	] 
	[ 
		koch ( ( :level + -1 ) , ( :width / 3 ) ) 
		left 60 
		koch ( ( :level + -1 ) , ( :width / 3 ) ) 
		right 120 
		koch ( ( :level + -1 ) , ( :width / 3 ) ) 
		left 60 
	] 
end 

to snowflake :level :width 
	repeat 3 
	[ 
		right 120 
		koch ( :level , :width ) 
	] 
end 

clear 
pendown 
snowflake ( 2 , 64 ) 
penup 
